app/assets/images/Contenido/Odin/Alquiler.svg

<svg fill="none" height="130" viewBox="0 0 117 130" width="117" xmlns="http://www.w3.org/2000/svg"><circle cx="57.8343" cy="45.4964" r="44.3397" stroke="#000" stroke-width="2.31337"/><g fill="#000"><path d="m30.5984 124.873-1.4218-3.29h-7.109l-1.4015 3.29h-2.7218l6.3982-14.218h2.5999l6.4184 14.218zm-7.6371-5.362h5.3419l-2.6811-6.216zm11.964 5.362v-15.071h2.5389v15.071zm14.0569-10.846h2.417v14.786h-2.5389v-5.26c-.8734.995-2.0921 1.462-3.4733 1.462-3.1686 0-5.4841-2.193-5.4841-5.565 0-3.352 2.3155-5.545 5.4841-5.545 1.4828 0 2.7421.508 3.5952 1.543zm-3.3108 8.815c1.8483 0 3.2295-1.32 3.2295-3.392s-1.3812-3.392-3.2295-3.392c-1.8281 0-3.2092 1.32-3.2092 3.392s1.3811 3.392 3.2092 3.392zm17.0119-8.815h2.5389v10.846h-2.417v-1.381c-.8125.995-2.0921 1.523-3.4936 1.523-2.7827 0-4.6717-1.523-4.6717-4.793v-6.195h2.5389v5.849c0 1.971.9344 2.905 2.539 2.905 1.7671 0 2.9655-1.097 2.9655-3.27zm7.1428-1.788c-.9343 0-1.6249-.67-1.6249-1.523s.6906-1.524 1.6249-1.524c.9344 0 1.625.63 1.625 1.463 0 .894-.6703 1.584-1.625 1.584zm-1.2796 12.634v-10.846h2.539v10.846zm5.8713 0v-15.071h2.539v15.071zm16.0678-5.362c0 .203-.0204.508-.0407.751h-8.5105c.3047 1.585 1.6249 2.6 3.5139 2.6 1.2187 0 2.1733-.386 2.9452-1.178l1.3608 1.564c-.9749 1.158-2.4983 1.767-4.3669 1.767-3.6358 0-5.992-2.336-5.992-5.565 0-3.23 2.3765-5.545 5.606-5.545 3.1686 0 5.4842 2.214 5.4842 5.606zm-5.4842-3.575c-1.6452 0-2.8436 1.056-3.0873 2.64h6.1544c-.2031-1.564-1.4015-2.64-3.0671-2.64zm10.3401-.325c.7312-1.138 2.0514-1.706 3.8592-1.706v2.417c-.2235-.041-.4063-.061-.5891-.061-1.9296 0-3.1483 1.137-3.1483 3.351v5.261h-2.5389v-10.846h2.4171z"/><path clip-rule="evenodd" d="m41.3206 30.0221h-.0491-.0007c-.6549.0003-1.309.4532-1.46 1.1075-.1008.4033-.0501.8061.151 1.1587.2017.3522.5543.604.9064.7048.8061.2518 1.6623-.2518 1.9142-1.0574.1003-.4028.0501-.8061-.1515-1.1582-.2012-.3526-.5538-.6045-.9064-.7053-.1786-.0445-.2782-.0495-.4039-.0501zm3.0729-.2518c-.4639-.7427-1.1416-1.3141-1.9542-1.5964.1138-.6131.3024-1.1999.5557-1.7512 4.5799 1.4205 7.2525 6.1114 6.1926 10.7685-1.4332-.1269-2.7772-.6261-3.9378-1.5289-.453-.302-1.0574-.2518-1.4101.2016-.3019.4535-.2518 1.0574.2017 1.41 1.3277 1.0157 2.8372 1.6676 4.4581 1.9091-1.3728 2.9612-4.0453 5.1566-6.9762 5.5442-.3526.0507-.7052.3025-.8061.7053l-5.7915 20.2454-3.7771 2.2156-1.8129-3.3236 1.712-1.0073c.4535-.2518.6551-.8056.4033-1.3092l-.957-1.9643 1.8128-1.1582c.4033-.2518.5543-.8061.3526-1.259l-.9566-1.9643 1.863-1.2084c.4033-.3025.5543-.8061.3526-1.259l-1.1582-2.5688 1.9643-7.5542c.1004-.4028-.0506-.8056-.3526-1.0574-2.7699-2.2663-3.9281-6.0434-2.9209-9.6193.6546-2.3165 2.2156-4.2808 4.3309-5.4891 1.6004-.8763 3.4023-1.2627 5.2098-1.1155-.2659.6556-.4618 1.3475-.5779 2.0668-1.1866.3105-2.195 1.2214-2.5673 2.4731-.2518.9065-.151 1.8635.3025 2.6691.5036.8061 1.259 1.41 2.1654 1.6618.302.1009.6546.1515.9571.1515 1.561 0 2.971-1.0072 3.4245-2.6189.2518-.9064.151-1.8635-.3025-2.669zm6.8918 7.336c1.0079-5.3285-2.0119-10.639-7.1111-12.5054 1.4089-1.6168 3.4854-2.6366 5.7591-2.6366 3.1789 0 5.9995 1.9899 7.1173 4.9437-.8549.1416-1.6245.5427-2.3329 1.2507-.9065.9565-1.3092 1.9638-1.3092 3.3236v.1009l.4336 4.5649c-.0103.0057-.0206.0116-.0309.0178-.7722.4702-1.6341.7837-2.5259.9404zm2.7637 1.2188c-1.0552.5391-2.2087.8453-3.3792.9352-1.4216 3.692-4.6186 6.5474-8.1899 7.2802l-5.7409 20.0438c-.0507.2518-.2518.4535-.4535.6045l-5.0361 2.9208c-.151.151-.3526.2017-.5036.2017-.1009 0-.2017 0-.2518-.0507-.2518-.0502-.5037-.2518-.6045-.5036l-2.7699-5.137c-.2518-.5036-.1008-1.1075.4028-1.3593l1.6624-.9069-.9069-1.9137c-.2012-.4529-.0502-1.0072.3526-1.259l1.8133-1.1582-.9571-2.0145c-.2016-.4534-.0501-1.0072.3527-1.259l1.8634-1.2591-.957-2.1153c-.1009-.2011-.1009-.4529-.0502-.6546l1.9136-7.3024c-3.0216-2.7699-4.2305-7.1514-3.0723-11.3313.8061-2.8707 2.6695-5.288 5.288-6.7487 2.2446-1.2514 4.7482-1.6893 7.257-1.2818 1.7597-2.4608 4.6419-4.0562 7.8514-4.0562 4.2561 0 8.0582 2.8605 9.2501 6.9432l10.0889.913c1.2378 0 2.2057.8555 2.6484 1.2469.0256.0225.0494.0436.0713.0628l17.123 17.1229c.4027.4028.4027 1.0072 0 1.41l-14.8065 14.8567c-.151.2016-.4028.302-.7053.302-.2518 0-.5036-.1004-.7048-.302l-17.1229-17.1229c-.4028-.4028-1.3097-1.4607-1.3097-2.7197zm2.4313 4.2368-1.0574-11.1297c0-.8061.2017-1.3097.7554-1.8635.5036-.5036 1.0073-.7554 1.6117-.7554l11.3313 1.0574h.1009c.3521 0 .9064.3024 1.3593.7554l16.4182 16.4181-13.3458 13.396-16.4182-16.4177c-.4529-.4534-.7554-.957-.7554-1.3598zm9.5185 2.6189c-.2518 0-.5036-.1008-.7053-.302-.4027-.4033-.4027-1.0072 0-1.4105l4.8852-4.8847c.4028-.4032 1.0072-.4032 1.41 0 .4033.4028.4033 1.0073 0 1.4101l-4.8846 4.8851c-.2017.2012-.4535.302-.7053.302zm4.986 5.3887c.2012.2012.453.302.7048.302s.5036-.1008.7052-.302l4.8852-4.8851c.4028-.4028.4028-1.0073 0-1.4101-.4033-.4028-1.0072-.4028-1.4105 0l-4.8847 4.8852c-.4033.4028-.4033 1.0072 0 1.41z" fill-rule="evenodd"/></g></svg>

<svg width="117" height="130" viewBox="0 0 117 130" fill="none" xmlns="http://www.w3.org/2000/svg">
<circle cx="57.8343" cy="45.4964" r="44.3397" stroke="black" stroke-width="2.31337"/>
<path d="M30.5984 124.873L29.1766 121.583H22.0676L20.6661 124.873H17.9443L24.3425 110.655H26.9424L33.3608 124.873H30.5984ZM22.9613 119.511H28.3032L25.6221 113.295L22.9613 119.511ZM34.9253 124.873V109.802H37.4642V124.873H34.9253ZM48.9822 114.027H51.3992V128.813H48.8603V123.553C47.9869 124.548 46.7682 125.015 45.387 125.015C42.2184 125.015 39.9029 122.822 39.9029 119.45C39.9029 116.098 42.2184 113.905 45.387 113.905C46.8698 113.905 48.1291 114.413 48.9822 115.448V114.027ZM45.6714 122.842C47.5197 122.842 48.9009 121.522 48.9009 119.45C48.9009 117.378 47.5197 116.058 45.6714 116.058C43.8433 116.058 42.4622 117.378 42.4622 119.45C42.4622 121.522 43.8433 122.842 45.6714 122.842ZM62.6833 114.027H65.2222V124.873H62.8052V123.492C61.9927 124.487 60.7131 125.015 59.3116 125.015C56.5289 125.015 54.6399 123.492 54.6399 120.222V114.027H57.1788V119.876C57.1788 121.847 58.1132 122.781 59.7178 122.781C61.4849 122.781 62.6833 121.684 62.6833 119.511V114.027ZM69.8261 112.239C68.8918 112.239 68.2012 111.569 68.2012 110.716C68.2012 109.863 68.8918 109.192 69.8261 109.192C70.7605 109.192 71.4511 109.822 71.4511 110.655C71.4511 111.549 70.7808 112.239 69.8261 112.239ZM68.5465 124.873V114.027H71.0855V124.873H68.5465ZM74.4178 124.873V109.802H76.9568V124.873H74.4178ZM90.4856 119.511C90.4856 119.714 90.4652 120.019 90.4449 120.262H81.9344C82.2391 121.847 83.5593 122.862 85.4483 122.862C86.667 122.862 87.6216 122.476 88.3935 121.684L89.7543 123.248C88.7794 124.406 87.256 125.015 85.3874 125.015C81.7516 125.015 79.3954 122.679 79.3954 119.45C79.3954 116.22 81.7719 113.905 85.0014 113.905C88.17 113.905 90.4856 116.119 90.4856 119.511ZM85.0014 115.936C83.3562 115.936 82.1578 116.992 81.9141 118.576H88.0685C87.8654 117.012 86.667 115.936 85.0014 115.936ZM95.3415 115.611C96.0727 114.473 97.3929 113.905 99.2007 113.905V116.322C98.9772 116.281 98.7944 116.261 98.6116 116.261C96.682 116.261 95.4633 117.398 95.4633 119.612V124.873H92.9244V114.027H95.3415V115.611Z" fill="black"/>
<path fill-rule="evenodd" clip-rule="evenodd" d="M41.3206 30.0221H41.2715L41.2708 30.0221C40.6159 30.0224 39.9618 30.4753 39.8108 31.1296C39.71 31.5329 39.7607 31.9357 39.9618 32.2883C40.1635 32.6405 40.5161 32.8923 40.8682 32.9931C41.6743 33.2449 42.5305 32.7413 42.7824 31.9357C42.8827 31.5329 42.8325 31.1296 42.6309 30.7775C42.4297 30.4249 42.0771 30.173 41.7245 30.0722C41.5459 30.0277 41.4463 30.0227 41.3206 30.0221ZM44.3935 29.7703C43.9296 29.0276 43.2519 28.4562 42.4393 28.1739C42.5531 27.5608 42.7417 26.974 42.995 26.4227C47.5749 27.8432 50.2475 32.5341 49.1876 37.1912C47.7544 37.0643 46.4104 36.5651 45.2498 35.6623C44.7968 35.3603 44.1924 35.4105 43.8397 35.8639C43.5378 36.3174 43.5879 36.9213 44.0414 37.2739C45.3691 38.2896 46.8786 38.9415 48.4995 39.183C47.1267 42.1442 44.4542 44.3396 41.5233 44.7272C41.1707 44.7779 40.8181 45.0297 40.7172 45.4325L34.9257 65.6779L31.1486 67.8935L29.3357 64.5699L31.0477 63.5626C31.5012 63.3108 31.7028 62.757 31.451 62.2534L30.494 60.2891L32.3068 59.1309C32.7101 58.8791 32.8611 58.3248 32.6594 57.8719L31.7028 55.9076L33.5658 54.6992C33.9691 54.3967 34.1201 53.8931 33.9184 53.4402L32.7602 50.8714L34.7245 43.3172C34.8249 42.9144 34.6739 42.5116 34.3719 42.2598C31.602 39.9935 30.4438 36.2164 31.451 32.6405C32.1056 30.324 33.6666 28.3597 35.7819 27.1514C37.3823 26.2751 39.1842 25.8887 40.9917 26.0359C40.7258 26.6915 40.5299 27.3834 40.4138 28.1027C39.2272 28.4132 38.2188 29.3241 37.8465 30.5758C37.5947 31.4823 37.6955 32.4393 38.149 33.2449C38.6526 34.051 39.408 34.6549 40.3144 34.9067C40.6164 35.0076 40.969 35.0582 41.2715 35.0582C42.8325 35.0582 44.2425 34.051 44.696 32.4393C44.9478 31.5329 44.847 30.5758 44.3935 29.7703ZM51.2853 37.1063C52.2932 31.7778 49.2734 26.4673 44.1742 24.6009C45.5831 22.9841 47.6596 21.9643 49.9333 21.9643C53.1122 21.9643 55.9328 23.9542 57.0506 26.908C56.1957 27.0496 55.4261 27.4507 54.7177 28.1587C53.8112 29.1152 53.4085 30.1225 53.4085 31.4823V31.5832L53.8421 36.1481C53.8318 36.1538 53.8215 36.1597 53.8112 36.1659C53.039 36.6361 52.1771 36.9496 51.2853 37.1063ZM54.049 38.3251C52.9938 38.8642 51.8403 39.1704 50.6698 39.2603C49.2482 42.9523 46.0512 45.8077 42.4799 46.5405L36.739 66.5843C36.6883 66.8361 36.4872 67.0378 36.2855 67.1888L31.2494 70.1096C31.0984 70.2606 30.8968 70.3113 30.7458 70.3113C30.6449 70.3113 30.5441 70.3113 30.494 70.2606C30.2422 70.2104 29.9903 70.0088 29.8895 69.757L27.1196 64.62C26.8678 64.1164 27.0188 63.5125 27.5224 63.2607L29.1848 62.3538L28.2779 60.4401C28.0767 59.9872 28.2277 59.4329 28.6305 59.1811L30.4438 58.0229L29.4867 56.0084C29.2851 55.555 29.4366 55.0012 29.8394 54.7494L31.7028 53.4903L30.7458 51.375C30.6449 51.1739 30.6449 50.9221 30.6956 50.7204L32.6092 43.418C29.5876 40.6481 28.3787 36.2666 29.5369 32.0867C30.343 29.216 32.2064 26.7987 34.8249 25.338C37.0695 24.0866 39.5731 23.6487 42.0819 24.0562C43.8416 21.5954 46.7238 20 49.9333 20C54.1894 20 57.9915 22.8605 59.1834 26.9432L69.2723 27.8562C70.5101 27.8562 71.478 28.7117 71.9207 29.1031C71.9463 29.1256 71.9701 29.1467 71.992 29.1659L89.115 46.2888C89.5177 46.6916 89.5177 47.296 89.115 47.6988L74.3085 62.5555C74.1575 62.7571 73.9057 62.8575 73.6032 62.8575C73.3514 62.8575 73.0996 62.7571 72.8984 62.5555L55.7755 45.4326C55.3727 45.0298 54.4658 43.9719 54.4658 42.7129L54.049 38.3251ZM56.4803 42.5619L55.4229 31.4322C55.4229 30.6261 55.6246 30.1225 56.1783 29.5687C56.6819 29.0651 57.1856 28.8133 57.79 28.8133L69.1213 29.8707H69.2222C69.5743 29.8707 70.1286 30.1731 70.5815 30.6261L86.9997 47.0442L73.6539 60.4402L57.2357 44.0225C56.7828 43.5691 56.4803 43.0655 56.4803 42.6627V42.5619ZM65.9988 45.1808C65.747 45.1808 65.4952 45.08 65.2935 44.8788C64.8908 44.4755 64.8908 43.8716 65.2935 43.4683L70.1787 38.5836C70.5815 38.1804 71.1859 38.1804 71.5887 38.5836C71.992 38.9864 71.992 39.5909 71.5887 39.9937L66.7041 44.8788C66.5024 45.08 66.2506 45.1808 65.9988 45.1808ZM70.9848 50.5695C71.186 50.7707 71.4378 50.8715 71.6896 50.8715C71.9414 50.8715 72.1932 50.7707 72.3948 50.5695L77.28 45.6844C77.6828 45.2816 77.6828 44.6771 77.28 44.2743C76.8767 43.8715 76.2728 43.8715 75.8695 44.2743L70.9848 49.1595C70.5815 49.5623 70.5815 50.1667 70.9848 50.5695Z" fill="black"/>
</svg>
